Obsidian-Light/status/scalable/user-status-pending-symbolic.svg

<svg height="16" width="16" xmlns="http://www.w3.org/2000/svg"><path d="m8 2c-3.8659929 0-7 2.4101491-7 6 0 3.589851 3.1340071 6 7 6 1.064957 0 2.065093-.229965 2.96875-.625l4.03125 1.625-1.4375-3.5625c.903172-1.094701 1.4375-1.951935 1.4375-3.4375 0-3.5898509-3.134007-6-7-6zm-3 5c.5522847 0 1 .4477153 1 1s-.4477153 1-1 1-1-.4477153-1-1 .4477153-1 1-1zm3 0c.5522847 0 1 .4477153 1 1s-.4477153 1-1 1-1-.4477153-1-1 .4477153-1 1-1zm3 0c.552285 0 1 .4477153 1 1s-.447715 1-1 1-1-.4477153-1-1 .447715-1 1-1z" fill="#bebebe"/></svg>

<?xml version="1.0" encoding="UTF-8" standalone="no"?>
<!-- Created with Inkscape (http://www.inkscape.org/) -->

<svg
   xmlns:dc="http://purl.org/dc/elements/1.1/"
   xmlns:cc="http://creativecommons.org/ns#"
   xmlns:rdf="http://www.w3.org/1999/02/22-rdf-syntax-ns#"
   xmlns:svg="http://www.w3.org/2000/svg"
   xmlns="http://www.w3.org/2000/svg"
   xmlns:sodipodi="http://sodipodi.sourceforge.net/DTD/sodipodi-0.dtd"
   xmlns:inkscape="http://www.inkscape.org/namespaces/inkscape"
   width="16"
   height="16"
   id="svg2"
   sodipodi:version="0.32"
   inkscape:version="0.48.3.1 r9886"
   version="1.0"
   sodipodi:docname="user-idle-symbolic.svg"
   inkscape:output_extension="org.inkscape.output.svg.inkscape">
  <defs
     id="defs4">
    <linearGradient
       id="StandardGradient"
       gradientTransform="scale(1.1389662,0.8779892)"
       x1="6.4706173"
       y1="7.6491265"
       x2="6.4706173"
       y2="18.248226"
       gradientUnits="userSpaceOnUse">
      <stop
         style="stop-color:#000000;stop-opacity:0.86274511;"
         offset="0"
         id="stop3283" />
      <stop
         style="stop-color:#000000;stop-opacity:0.47058824;"
         offset="1"
         id="stop3285" />
    </linearGradient>
  </defs>
  <sodipodi:namedview
     id="base"
     pagecolor="#ffffff"
     bordercolor="#9a9a9a"
     borderopacity="1"
     inkscape:pageopacity="0.0"
     inkscape:pageshadow="2"
     inkscape:zoom="55.573379"
     inkscape:cx="6.5334873"
     inkscape:cy="8.3995766"
     inkscape:document-units="px"
     inkscape:current-layer="layer3"
     showgrid="true"
     inkscape:showpageshadow="false"
     showguides="true"
     inkscape:guide-bbox="true"
     inkscape:window-width="1920"
     inkscape:window-height="1029"
     inkscape:window-x="0"
     inkscape:window-y="24"
     inkscape:window-maximized="1">
    <sodipodi:guide
       orientation="1,0"
       position="0,112"
       id="guide2383" />
    <sodipodi:guide
       orientation="0,1"
       position="26.278146,128"
       id="guide2385" />
    <sodipodi:guide
       orientation="1,0"
       position="128,54.082119"
       id="guide2387" />
    <sodipodi:guide
       orientation="0,1"
       position="78.156291,0"
       id="guide2389" />
    <inkscape:grid
       type="xygrid"
       id="grid3672"
       visible="true"
       enabled="true" />
  </sodipodi:namedview>
  <metadata
     id="metadata7">
    <rdf:RDF>
      <cc:Work
         rdf:about="">
        <dc:format>image/svg+xml</dc:format>
        <dc:type
           rdf:resource="http://purl.org/dc/dcmitype/StillImage" />
      </cc:Work>
    </rdf:RDF>
  </metadata>
  <g
     inkscape:groupmode="layer"
     id="layer3"
     inkscape:label="Cross"
     style="display:inline"
     transform="translate(-0.4642613,-2.999982)">
    <path
       style="fill:#bebebe;fill-opacity:1;stroke:none;display:inline;opacity:1"
       d="M 8 2 C 4.1340071 2 1 4.4101491 1 8 C 1 11.589851 4.1340071 14 8 14 C 9.064957 14 10.065093 13.770035 10.96875 13.375 L 15 15 L 13.5625 11.4375 C 14.465672 10.342799 15 9.485565 15 8 C 15 4.4101491 11.865993 2 8 2 z M 5 7 C 5.5522847 7 6 7.4477153 6 8 C 6 8.5522847 5.5522847 9 5 9 C 4.4477153 9 4 8.5522847 4 8 C 4 7.4477153 4.4477153 7 5 7 z M 8 7 C 8.5522847 7 9 7.4477153 9 8 C 9 8.5522847 8.5522847 9 8 9 C 7.4477153 9 7 8.5522847 7 8 C 7 7.4477153 7.4477153 7 8 7 z M 11 7 C 11.552285 7 12 7.4477153 12 8 C 12 8.5522847 11.552285 9 11 9 C 10.447715 9 10 8.5522847 10 8 C 10 7.4477153 10.447715 7 11 7 z "
       transform="translate(0.4642613,2.999982)"
       id="path2994" />
  </g>
</svg>
